X:3003
T:Banks of the Ohio
C:anon.
O:USA
Z:Transcribed by Frank Nordberg - http://www.musicaviva.com
F:http://abc.musicaviva.com/tunes/usa/banks-of-the-ohio.abc
M:C
L:1/4
K:C
CCE|"C"E4|"C"z CCD|"G"D4|z DDE|
w:I asked my love to take a walk, to take a
"G"F4|z DGF|"C"E4|"C"z2 EF|
w:walk, a litltle walk. Right down be-
"C"G4|"C"z EFG|"F"F4|"F"z CCD|
w:side where wat-ers flow, down by the
"C"E4|"G"z D3/4D// DD|"C"C4|z|]
w:banks of the O-hi-o.
W:
W:I asked my love to take a walk,
W:to take a walk, a litltle walk.
W:Right down be side where waters flow,
W:down by the banks of the Ohio.
W:
W:  And only say that "you'll be mine,
W:  in no other arms entwine
W:  down beside where the water flow,
W:  down by the banks of the Ohio."
W:
W:I held a knife to her breast
W:as into my arms she pressed.
W:She cried: "my love don't you murder me!
W:I'm not prepared for eternity!"
W:
W:  And only say...
W:
W:I wandered home 'tween twelve and one.
W:I cired: "my Lord, what have I done?
W:I kiled the only girl I loved,
W:she wouldn't take me and be my bride."er me!
W:I'm not prepared for eternity!"
W:
W:  And only say...
W:
W:
W:  From Musica Viva - http://www.musicaviva.com
W:  the Internet center for free sheet music downloads.

